X: 1
T:"Money in Advance" -- Clog
M:C|
L:1/8
R:clog
B:Ryan's Mammoth Collection
N:154 918
Z:Contributed by Ray Davies,  ray:davies99.freeserve.co.uk
K:F
u(A>.B)|\
(c>.A)(f>.d) "^SEGUE"c>Af>d | (3cdc (3BAG F2 G>A |\
 B>AB>c d>ef>d | a>g(3fed c2A>B |
 c>Af>d c>Af>d | (3cdc(3BAG F2G>A | B>AB>c d>ef>g |\
a>fc>A F2:|
|:u(a>.g)|\
v(3fgf(3ded (3AdA(3FAF | (D>.F)(A>.d) f2(e>.d) |\
"^SEGUE" g>fg>a b>ag>f | e>d^c>B A2a>g |
f>ed>^c d>fA2 | b>ag>f e>g^C2 | A>^ce>b a>gf>e |\
 d2 f2 d2:|
